svgs/sharp-light/cassette-betamax.svg

<svg xmlns="http://www.w3.org/2000/svg" viewBox="0 0 576 512"><!--! Font Awesome Pro 6.6.0 by @fontawesome - https://fontawesome.com License - https://fontawesome.com/license (Commercial License) Copyright 2024 Fonticons, Inc. --><path d="M32 160l512 0 0 288L32 448l0-288zm0-32l0-64 512 0 0 64L32 128zm544 16l0-16 0-64 0-32-32 0L32 32 0 32 0 64l0 64 0 16 0 16L0 448l0 32 32 0 512 0 32 0 0-32 0-288 0-16zM112 304a64 64 0 1 1 128 0 64 64 0 1 1 -128 0zm160 0A96 96 0 1 0 80 304a96 96 0 1 0 192 0zm-72 0a24 24 0 1 0 -48 0 24 24 0 1 0 48 0zm152-48l96 0 0 96-96 0 0-96zm-32-32l0 32 0 96 0 32 32 0 96 0 32 0 0-32 0-96 0-32-32 0-96 0-32 0z"/></svg>

<svg xmlns="http://www.w3.org/2000/svg" viewBox="0 0 576 512"><!--! Font Awesome Pro 6.5.2 by @fontawesome - https://fontawesome.com License - https://fontawesome.com/license (Commercial License) Copyright 2024 Fonticons, Inc. --><path d="M32 160H544V448H32V160zm0-32V64H544v64H32zm544 16V128 64 32H544 32 0V64v64 16 16V448v32H32 544h32V448 160 144zM112 304a64 64 0 1 1 128 0 64 64 0 1 1 -128 0zm160 0A96 96 0 1 0 80 304a96 96 0 1 0 192 0zm-72 0a24 24 0 1 0 -48 0 24 24 0 1 0 48 0zm152-48h96v96H352V256zm-32-32v32 96 32h32 96 32V352 256 224H448 352 320z"/></svg>
